app/assets/images/logo.svg

﻿<?xml version="1.0" encoding="UTF-8"?>
<!DOCTYPE svg PUBLIC "-//W3C//DTD SVG 1.1//EN" "http://www.w3.org/Graphics/SVG/1.1/DTD/svg11.dtd">
<svg xmlns="http://www.w3.org/2000/svg" style="background: #F16B6B" width="210" height="105">

 <defs>
  <font id="FontOSW" font-variant="normal" style="fill-rule:nonzero" font-weight="400,700">
	<font-face 
		font-family="SVGOswald">
	</font-face>
   <missing-glyph></missing-glyph>
   <glyph unicode="D" horiz-adv-x="568"><path d="M52.1682 0l0 878.835 183.666 0c58.6641,0 106.831,-5.16831 144.833,-15.8332 37.8341,-10.5007 67.6658,-28.0008 89.3311,-52.1682 21.669,-24.3352 36.6669,-53.3317 44.8333,-87.1682 8.33421,-33.8329 12.5031,-76.9994 12.5031,-129.499l0 -287.999c0,-31.3345 -1.00302,-58.5 -3.00178,-81.8321 -1.83462,-23.168 -5.50022,-46.0005 -10.8327,-68.3333 -5.50022,-22.3328 -12.8351,-41.1677 -22.0009,-56.669 -9.33359,-15.4976 -21.3334,-29.8317 -35.9994,-43.1665 -14.5019,-13.3311 -32.1661,-23.9996 -52.832,-31.8341 -20.6696,-7.6631 -45.0011,-13.8308 -72.8341,-17.9997 -27.833,-4.16528 -59.8349,-6.33181 -96.0021,-6.33181l-181.664 0zm184.666 124.499c16.8326,0 30.3314,0.335557 40.0006,0.667467 9.83328,0.499688 19.4988,1.83462 29.3321,3.6656 9.83328,2.0024 16.8326,4.66862 21.5012,8.16644 4.49719,3.33369 8.8339,8.33421 12.6673,14.8338 3.83337,6.49959 6.49959,14.3341 7.49897,23.168 1.16715,8.99803 1.83097,20.1662 1.83097,33.501l0 473.165c0,29.0001 -8.66612,48.167 -25.9984,57.6684 -17.1681,9.33359 -46.1683,14.1663 -86.8327,14.4983l0 -629.334z"/></glyph>
   <glyph unicode="O" horiz-adv-x="596"><path d="M41 288.998l0 295.502c0,207.666 85.6655,311.499 256.832,311.499 171.502,0 257.336,-103.833 257.336,-311.499l0 -291.001c0,-35.1642 -2.66987,-67.6658 -7.83453,-97.4975 -5.16831,-29.6676 -13.9986,-58.0003 -26.5017,-84.6698 -12.6636,-26.6658 -28.4968,-49.3305 -47.9992,-68.1655 -19.331,-18.6672 -43.834,-33.3332 -73.4979,-44.1659 -29.4998,-10.6685 -63.3364,-16.1687 -101.502,-16.1687 -37.6663,0 -71.4992,5.33609 -100.999,16.001 -29.6676,10.5007 -54.1669,24.8349 -73.3338,42.8346 -19.1669,18.1675 -35.0001,40.3325 -47.4996,66.4986 -12.6673,26.1662 -21.5012,54.1669 -27.0014,83.6668 -5.33244,29.6676 -7.99866,62.0015 -7.99866,97.1656zm336.502 -39.9969l0 379.832c0,86.6649 -26.6695,129.999 -79.6693,129.999 -15.9973,0 -29.4998,-4.00115 -40.5003,-11.9998 -11.0004,-7.99866 -19.1669,-18.835 -24.4993,-32.6657 -5.16466,-13.8344 -8.8339,-27.5011 -10.8327,-41 -2.16653,-13.5025 -3.16591,-28.3327 -3.16591,-44.3336l0 -379.832c0,-86.1689 26.3339,-129.335 78.9981,-129.335 52.9998,0 79.6693,43.1665 79.6693,129.335z"/></glyph>
   <glyph unicode="N" horiz-adv-x="572"><path d="M52.1682 0l0 879.334 127.997 0 192.836 -459.833 0 459.833 147.499 0 0 -879.334 -123 0 -192.5 487.834 0 -487.834 -152.832 0z"/></glyph>
   <glyph unicode="A" horiz-adv-x="545"><path d="M227.001 297.333l90.8338 0 -44.3336 326.169 -46.5002 -326.169zm-222.668 -297.333l190.002 878.835 157.165 0 189.502 -878.835 -175.336 0 -35.9994 187.999 -114.833 0 -34.1648 -187.999 -176.335 0z"/></glyph>
   <glyph unicode="M" horiz-adv-x="717"><path d="M52.1682 0l0 878.835 212.998 0 93.6678 -585.835 101.167 585.835 205.499 0 0 -878.835 -130.834 0 -3.83337 618.165c-9.83328,-63.4969 -27.0014,-166.498 -51.3329,-308.997 -24.4993,-142.67 -41.4996,-245.668 -51.3329,-309.168l-132.833 0 -107.834 621.999 -3.83337 -621.999 -131.498 0z"/></glyph>
   <glyph unicode="E" horiz-adv-x="430"><path d="M52.1682 0l0 878.835 366.833 0 0 -122.001 -189.002 0 0 -239.336 133.836 0 0 -124.999 -133.836 0 0 -270.499 189.002 0 0 -122.001 -366.833 0z"/></glyph>
   <glyph unicode="H" horiz-adv-x="588"><path d="M52.1682 0l0 878.835 177.831 0 0 -360.334 127.501 0 0 360.334 178.666 0 0 -878.835 -178.666 0 0 392.168 -127.501 0 0 -392.168 -177.831 0z"/></glyph>
   <glyph unicode="S" horiz-adv-x="514"><path d="M22.0009 251.5l180.165 34.6681c0,-17.9997 0.335557,-33.6688 0.999376,-47.3354 0.667467,-13.6667 2.33431,-28.6646 5.16831,-44.6656 2.66622,-16.1687 6.49959,-29.3321 11.1682,-39.6687 4.66497,-10.1652 11.3323,-18.8313 19.9985,-25.8306 8.66612,-7.00293 18.835,-10.5007 30.4992,-10.5007 35.1678,0 52.8356,22.5006 52.8356,67.3339 0,61.4981 -34.6681,122.832 -104.001,183.666l-55.3341 46.8321c-17.5,14.666 -31.4986,26.8336 -41.8352,36.6669 -10.4971,9.6655 -22.8325,23.0002 -36.9988,39.5009 -14.1663,16.6648 -25.1668,32.6657 -33.1654,48.167 -8.00231,15.3335 -14.8338,34.0007 -20.5018,55.8338 -5.66435,21.8331 -8.49835,44.9975 -8.49835,69.3326 0,71.3314 22.6647,127.665 67.8336,169.164 45.1652,41.4996 105.332,62.3334 180.165,62.3334 62.1692,0 115.001,-22.165 158.667,-66.4986 43.6662,-44.1659 65.4993,-97.6653 65.4993,-160.166l-0.499688 -6.33181c0,-4.16893 0,-9.00168 0,-14.6697l-183.666 -25.3309c0,3.6656 0.33191,9.16581 0.835245,16.8326 0.499688,7.66675 0.663819,13.9986 0.663819,18.8313 0,11.6679 -0.831598,23.0002 -2.49844,33.6688 -1.49906,10.8327 -4.16528,21.5012 -7.99866,32.3338 -3.66924,10.6649 -9.50137,19.1669 -17.3359,25.4987 -7.83088,6.33546 -17.1645,9.50137 -28.3327,9.50137 -19.4988,0 -34.1648,-7.50262 -43.9981,-22.8325 -9.66915,-15.3335 -14.5019,-33.3369 -14.5019,-54.1669 0,-18.3353 2.834,-35.3356 8.50199,-51.3366 5.66435,-15.9973 14.3305,-30.8311 25.8306,-44.6656 11.5001,-13.8344 22.1686,-25.3346 32.0019,-34.5004 9.83328,-8.99803 22.8325,-20.1662 38.9976,-33.3332 16.3365,-13.167 27.8366,-23.0002 34.6681,-29.1643 25.1668,-22.0009 46.3324,-42.8346 63.5005,-62.1692 17.3322,-19.331 33.501,-41.3319 48.8345,-65.667 15.3335,-24.4993 26.83,-50.8332 34.4967,-79.1659 7.66675,-28.3327 11.5001,-58.8319 11.5001,-91.8332 0,-61.4981 -21.9972,-111.832 -65.999,-151.001 -43.9981,-39.3331 -97.3334,-58.8319 -160.166,-58.8319 -40.6681,0 -76.8316,7.49897 -108.334,22.3328 -31.6664,15.0016 -57.0009,35.332 -76.4997,61.1662 -19.331,25.6665 -34.1648,54.1669 -44.6656,85.3336 -10.333,31.3345 -16.3329,64.8354 -17.9997,100.667z"/></glyph>
   <glyph unicode="R" horiz-adv-x="547"><path d="M229.999 513.165l50.8332 0c13.6667,0 25.3346,4.50084 35.1678,13.6667 9.6655,9.16946 16.8326,20.6696 21.1656,34.6681 4.33306,13.9986 7.50262,26.8336 9.33359,38.6657 1.66684,11.6679 2.66622,22.6683 2.66622,33.1691 0,10.333 -0.831598,21.1656 -2.16653,32.1661 -1.49906,11.1646 -4.16528,23.3322 -7.83088,36.831 -3.83337,13.5025 -10.0011,24.6671 -18.6672,33.3332 -8.50199,8.50199 -18.9991,12.8351 -31.5022,12.8351l-58.9997 0 0 -235.335zm-177.831 -513.165l0 878.835 193.5 0c43.834,0 82.4996,-4.00115 115.833,-12.3354 33.501,-8.33421 62.6653,-21.3334 87.6643,-39.1653 25.1668,-17.6678 44.1695,-41.6674 57.1687,-71.667 12.9992,-30.1673 19.4988,-66.1667 19.4988,-108.166 0,-18.3353 -0.667467,-34.5004 -1.83097,-48.8345 -1.33493,-14.3341 -4.33306,-30.667 -9.16946,-49.1664 -4.66497,-18.3353 -11.1646,-34.6681 -19.1669,-48.8345 -8.16644,-14.1663 -19.9985,-28.0008 -35.1642,-41.6674 -15.3335,-13.6667 -33.3332,-24.999 -54.1669,-34.1648 52.6642,-167.334 98.5006,-309.001 137.666,-424.833l-184.166 0 -100.499 404.835 -29.3357 0 0 -404.835 -177.831 0z"/></glyph>
   <glyph unicode="G" horiz-adv-x="604"><path d="M41 274.832l0 309.668c0,207.666 86.5008,311.499 259.335,311.499 36.4991,0 68.833,-4.83275 97.3334,-14.3341 28.5005,-9.6655 52.3323,-23.0002 71.4992,-39.8328 19.3346,-17.0003 35.0001,-37.8341 47.4996,-62.4975 12.3317,-24.8349 21.3334,-51.6685 26.8336,-80.6686 5.50022,-28.8324 8.33421,-60.8343 8.33421,-95.6666l0 -51.6648 -170 0 0 61.4981c0,15.3335 -0.335557,28.6682 -1.16715,40.1684 -0.835245,11.6643 -2.834,24.4993 -6.16768,38.6657 -3.16591,14.1663 -7.66675,25.8342 -13.167,34.8323 -5.50022,9.16581 -13.4989,16.8326 -23.9996,23.0002 -10.333,6.16768 -22.6683,9.33359 -36.9988,9.33359 -54.3347,0 -81.5002,-43.3343 -81.5002,-129.999l0 -379.333c0,-86.333 27.1655,-129.335 81.5002,-129.335 53.9991,0 81.0005,44.6692 81.0005,134.168l0 70.332 -100.503 0 0 127.501 278.334 0 0 -452.167 -122.165 0 -22.5006 61.5018c-15.0016,-23.3358 -36.1672,-42.3349 -63.8324,-56.8368 -27.6689,-14.4983 -56.1693,-21.8331 -85.5014,-21.8331 -31.6664,0 -60.3346,5.83577 -86.1652,17.3359 -26.002,11.6643 -47.1676,26.9977 -64.0002,46.0005 -16.8362,18.9991 -30.8348,41.3319 -42.1671,67.1661 -11.5001,25.6665 -19.6666,52.0004 -24.4993,78.834 -4.8364,26.83 -7.33484,54.3311 -7.33484,82.6637z"/></glyph>
  </font>
  <style type="text/css">
    @font-face {font-family:"SVGOswald";src:url("#FontOSW") format(svg)}
    #abrazados {fill:#AF4242; fill-opacity:0.5;}
    #titulo {font-weight:bold;font-size:26px;font-family:'Oswald';fill:white;}
  </style>
 </defs>

  <g id="titulo">
  <text x="75" y="50">HERMANOS</text>
  <text x="75" y="78">DE </text>
  <text x="108" y="78">SANGRE</text>
  </g>
  <g id="abrazados">
   <path id="izquierda" d="M23.7286 66.9541c2.6005,2.8955 5.5716,5.5415 8.7139,7.7982 2.08,-0.6869 4.0484,-1.5504 5.8988,-2.5747 -4.774,-2.6445 -8.7617,-6.3577 -11.8491,-10.8587 -0.891,1.3755 -1.5891,2.6593 -2.0508,3.7906 -0.2595,0.6354 -0.497,1.2501 -0.7128,1.8446zm4.2822 -51.837c3.8639,0 6.9963,3.1324 6.9963,6.9964 0,3.8639 -3.1324,6.9962 -6.9963,6.9962 -3.8639,0 -6.9963,-3.1323 -6.9963,-6.9962 0,-3.864 3.1324,-6.9964 6.9963,-6.9964zm13.0706 64.6541c3.9562,1.7396 7.9023,2.7323 11.4919,2.7323 12.5432,0 15.9789,-12.1181 9.5188,-25.8717 -2.7886,-5.9369 -7.2441,-11.3875 -12.4165,-15.6662 -2.9868,1.2566 -6.0516,3.1477 -8.981,5.3716 7.0656,5.6618 13.1355,13.0643 15.0688,17.8011 2.304,5.6448 2.9057,9.6518 1.5113,12.5053 -3.386,0.066 -6.5878,-0.2555 -9.5887,-0.923 -2.1419,1.546 -4.3644,2.9112 -6.6046,4.0506zm-13.3982 -48.0427c-12.1369,0 -17.1467,10.4389 -11.6063,23.575l0.1294 -0.2783c1.1587,-2.4668 2.6055,-4.8498 4.2718,-7.0995 -0.7043,-2.7871 -1.1664,-5.7051 -1.3731,-8.7209 2.7867,-1.2597 6.0944,-1.0573 9.5709,0.1103 2.7293,-2.2517 5.6576,-4.1769 8.6448,-5.6749 -3.2682,-1.2307 -6.5402,-1.9117 -9.6375,-1.9117z"/>
   <path id="derecha" d="M51.4892 31.7285c12.2392,0 17.2292,10.6158 11.4626,23.908 -1.1369,-2.697 -2.5915,-5.2692 -4.2701,-7.6629 0.7109,-2.8016 1.1779,-5.7355 1.3856,-8.7688 -11.7424,-5.308 -32.7316,15.3131 -36.6582,24.9335 -2.3041,5.6448 -2.9059,9.6518 -1.5114,12.5053 13.9035,0.2718 24.3552,-5.5983 30.8895,-15.5144 1.01,1.5185 1.7952,2.934 2.2989,4.1683 0.2069,0.5066 0.3997,0.9998 0.5789,1.4803 -8.0681,9.2568 -18.0751,15.7257 -29.0659,15.7257 -10.9907,0 -15.9788,-12.1181 -9.5187,-25.8717 6.4599,-13.7538 21.8654,-24.9033 34.4088,-24.9033zm-0.5866 -16.9796c3.8638,0 6.9962,3.1324 6.9962,6.9962 0,3.864 -3.1324,6.9964 -6.9962,6.9964 -3.864,0 -6.9964,-3.1324 -6.9964,-6.9964 0,-3.8638 3.1324,-6.9962 6.9964,-6.9962z"/>
  </g>
</svg>

<svg xmlns="http://www.w3.org/2000/svg" style="background:#F16B6B" width="210" height="105"><defs><font id="FontOSW" font-weight="400,700"><font-face font-family="SVGOswald"/><glyph unicode="D" horiz-adv-x="568"><path d="M52.168 0v878.835h183.666c58.664 0 106.83-5.168 144.833-15.833 37.834-10.5 67.666-28 89.33-52.168 21.67-24.336 36.668-53.332 44.835-87.17 8.334-33.83 12.503-76.998 12.503-129.498v-288c0-31.333-1.003-58.5-3.002-81.83-1.835-23.17-5.5-46-10.833-68.334-5.5-22.333-12.835-41.168-22-56.67-9.334-15.497-21.334-29.83-36-43.165-14.502-13.332-32.166-24-52.832-31.835-20.67-7.663-45-13.83-72.834-18C302 2.168 270 .003 233.832.003H52.168zm184.666 124.5c16.833 0 30.332.335 40 .666 9.834.5 19.5 1.835 29.333 3.666 9.833 2.002 16.833 4.67 21.5 8.167 4.498 3.332 8.835 8.333 12.668 14.832 3.834 6.5 6.5 14.334 7.5 23.168 1.167 8.998 1.83 20.167 1.83 33.5v473.166c0 29-8.666 48.167-25.998 57.67-17.168 9.332-46.168 14.165-86.833 14.497V124.5z"/></glyph><glyph unicode="O" horiz-adv-x="596"><path d="M41 288.998V584.5C41 792.166 126.665 896 297.832 896c171.502 0 257.336-103.834 257.336-311.5v-291c0-35.165-2.67-67.667-7.835-97.498-5.168-29.668-13.998-58-26.5-84.67-12.665-26.666-28.498-49.33-48-68.166C453.503 24.5 429 9.833 399.335-1c-29.5-10.668-63.337-16.168-101.502-16.168-37.667 0-71.5 5.336-101 16-29.667 10.5-54.166 24.836-73.333 42.835-19.167 18.168-35 40.333-47.5 66.5-12.667 26.165-21.5 54.166-27 83.666-5.334 29.667-8 62-8 97.165zM377.502 249v379.833c0 86.665-26.67 130-79.67 130-15.997 0-29.5-4.002-40.5-12-11-8-19.166-18.836-24.5-32.666-5.164-13.835-8.833-27.502-10.832-41-2.166-13.503-3.166-28.333-3.166-44.334V249c0-86.168 26.334-129.334 79-129.334 52.998 0 79.668 43.166 79.668 129.335z"/></glyph><glyph unicode="N" horiz-adv-x="572"><path d="M52.168 0v879.334h127.997L373 419.5v459.834h147.5V0h-123L205 487.834V0H52.168z"/></glyph><glyph unicode="A" horiz-adv-x="545"><path d="M227 297.333h90.835L273.5 623.503 227 297.332zM4.334 0l190.002 878.835H351.5L541.002 0H365.666l-36 188H214.835L180.67 0H4.333z"/></glyph><glyph unicode="M" horiz-adv-x="717"><path d="M52.168 0v878.835h212.998L358.834 293 460 878.835h205.5V0H534.666l-3.833 618.165C521 554.668 503.83 451.667 479.5 309.168 455 166.498 438 63.5 428.167 0H295.334L187.5 622 183.666 0H52.168z"/></glyph><glyph unicode="E" horiz-adv-x="430"><path d="M52.168 0v878.835H419v-122H230V517.497h133.835v-125H230V122h189V0H52.17z"/></glyph><glyph unicode="H" horiz-adv-x="588"><path d="M52.168 0v878.835h177.83V518.5H357.5v360.335h178.666V0H357.5v392.168H230V0H52.167z"/></glyph><glyph unicode="S" horiz-adv-x="514"><path d="M22 251.5l180.166 34.668c0-18 .335-33.67 1-47.335.667-13.667 2.334-28.665 5.168-44.666 2.666-16.17 6.5-29.332 11.168-39.67 4.665-10.164 11.332-18.83 19.998-25.83 8.666-7.002 18.835-10.5 30.5-10.5 35.167 0 52.835 22.5 52.835 67.334 0 61.5-34.668 122.833-104 183.667L163.5 416c-17.5 14.665-31.5 26.833-41.835 36.666-10.497 9.665-22.833 23-37 39.5C70.5 508.833 59.5 524.834 51.502 540.335c-8.002 15.333-14.833 34-20.5 55.834-5.666 21.833-8.5 44.997-8.5 69.332 0 71.332 22.665 127.665 67.834 169.164 45.165 41.5 105.332 62.334 180.165 62.334 62.168 0 115-22.165 158.666-66.5 43.666-44.165 65.5-97.664 65.5-160.165l-.5-6.332v-14.668L310.5 624.002c0 3.664.332 9.164.835 16.83.5 7.668.664 14 .664 18.833 0 11.667-.833 23-2.5 33.668-1.5 10.833-4.165 21.502-7.998 32.334-3.67 10.665-9.502 19.167-17.336 25.5-7.83 6.334-17.165 9.5-28.333 9.5-19.5 0-34.165-7.502-43.998-22.832-9.67-15.334-14.502-33.337-14.502-54.167 0-18.335 2.834-35.336 8.502-51.337 5.664-15.996 14.33-30.83 25.83-44.664 11.5-13.835 22.17-25.335 32.003-34.5 9.833-9 22.832-20.167 38.997-33.334 16.337-13.167 27.837-23 34.668-29.164 25.167-22 46.333-42.835 63.5-62.17 17.333-19.33 33.502-41.33 48.835-65.666 15.334-24.5 26.83-50.834 34.497-79.166 7.667-28.333 11.5-58.832 11.5-91.834 0-61.498-21.997-111.832-66-151C385.67 1.497 332.334-18 269.5-18c-40.668 0-76.832 7.5-108.334 22.332-31.666 15.002-57 35.332-76.5 61.167C65.336 91.164 50.502 119.664 40 150.83 29.67 182.167 23.67 215.668 22 251.5z"/></glyph><glyph unicode="R" horiz-adv-x="547"><path d="M230 513.165h50.832c13.667 0 25.335 4.5 35.168 13.667 9.665 9.17 16.833 20.67 21.166 34.668 4.333 13.998 7.502 26.833 9.333 38.665 1.666 11.668 2.665 22.67 2.665 33.17 0 10.333-.83 21.165-2.166 32.166-1.5 11.165-4.166 23.333-7.832 36.832-3.833 13.502-10 24.667-18.667 33.333-8.5 8.502-18.998 12.835-31.5 12.835h-59V513.165zM52.167 0v878.835h193.5c43.834 0 82.5-4 115.833-12.335 33.502-8.335 62.666-21.334 87.665-39.166 25.167-17.667 44.17-41.667 57.17-71.667C519.332 725.5 525.832 689.5 525.832 647.5c0-18.334-.668-34.5-1.83-48.833-1.336-14.334-4.334-30.667-9.17-49.167-4.666-18.335-11.165-34.668-19.168-48.834-8.166-14.166-19.998-28-35.164-41.668-15.332-13.666-33.332-25-54.166-34.164C459 257.5 504.834 115.834 544 0H359.834l-100.5 404.836H230V0H52.17z"/></glyph><glyph unicode="G" horiz-adv-x="604"><path d="M41 274.832V584.5C41 792.166 127.5 896 300.335 896c36.5 0 68.833-4.834 97.333-14.335 28.5-9.666 52.333-23 71.5-39.833 19.334-17 35-37.834 47.5-62.497 12.33-24.835 21.333-51.67 26.833-80.67 5.5-28.83 8.335-60.833 8.335-95.666v-51.665h-170v61.498c0 15.333-.336 28.668-1.167 40.168-.835 11.665-2.834 24.5-6.168 38.667-3.166 14.166-7.667 25.834-13.167 34.832-5.5 9.165-13.5 16.832-24 23-10.332 6.167-22.668 9.333-36.998 9.333-54.335 0-81.5-43.334-81.5-130V249.502c0-86.332 27.165-129.334 81.5-129.334 54 0 81 44.67 81 134.168v70.332H280.832v127.5h278.334V0H437l-22.5 61.502c-15-23.336-36.167-42.335-63.832-56.837-27.67-14.498-56.17-21.833-85.5-21.833-31.668 0-60.336 5.836-86.166 17.336-26.002 11.664-47.168 26.997-64 46-16.837 19-30.835 41.332-42.168 67.166-11.5 25.667-19.666 52-24.5 78.834C43.5 218.998 41 246.498 41 274.832z"/></glyph></font><style>@font-face {font-family:&amp;quot;SVGOswald&amp;quot;;src:url(&amp;quot;#FontOSW&amp;quot;) format(svg)} #abrazados {fill:#AF4242; fill-opacity:0.5;} #titulo {font-weight:bold;font-size:26px;font-family:&amp;apos;Oswald&amp;apos;;fill:white;}</style></defs><g id="titulo"><text x="75" y="50">HERMANOS</text><text x="75" y="78">DE</text><text x="108" y="78">SANGRE</text></g><g id="abrazados"><path id="izquierda" d="M23.73 66.954c2.6 2.896 5.57 5.542 8.713 7.798 2.08-.687 4.048-1.55 5.898-2.574-4.773-2.645-8.76-6.358-11.848-10.86-.89 1.376-1.59 2.66-2.05 3.79-.26.637-.498 1.252-.713 1.846zm4.28-51.837c3.865 0 6.997 3.132 6.997 6.996 0 3.864-3.132 6.997-6.996 6.997-3.863 0-6.995-3.133-6.995-6.997s3.132-6.996 6.996-6.996zM41.08 79.77c3.958 1.74 7.904 2.733 11.493 2.733 12.544 0 15.98-12.118 9.52-25.87-2.79-5.938-7.245-11.39-12.417-15.667-2.987 1.256-6.052 3.147-8.98 5.37C47.76 52 53.83 59.402 55.762 64.14c2.304 5.645 2.906 9.652 1.512 12.506-3.386.066-6.588-.256-9.59-.923-2.14 1.547-4.363 2.912-6.604 4.05zM27.684 31.73c-12.137 0-17.146 10.44-11.606 23.575l.13-.278c1.158-2.467 2.605-4.85 4.27-7.1-.703-2.786-1.165-5.704-1.372-8.72 2.787-1.26 6.094-1.058 9.57.11 2.73-2.252 5.658-4.177 8.646-5.675-3.267-1.23-6.54-1.912-9.637-1.912z"/><path id="derecha" d="M51.49 31.729c12.238-.002 17.228 10.614 11.462 23.907-1.137-2.698-2.592-5.27-4.27-7.663.71-2.802 1.178-5.736 1.385-8.77C48.325 33.898 27.337 54.52 23.41 64.14c-2.305 5.645-2.907 9.652-1.512 12.506 13.903.27 24.355-5.6 30.89-15.515 1.01 1.518 1.794 2.933 2.298 4.168.207.506.4 1 .58 1.48-8.07 9.257-18.076 15.725-29.067 15.725-10.992 0-15.98-12.118-9.52-25.87 6.46-13.755 21.866-24.905 34.41-24.905zm-.587-16.98c3.863 0 6.996 3.13 6.996 6.995 0 3.864-3.134 6.997-6.997 6.997-3.864 0-6.997-3.133-6.997-6.997s3.133-6.996 6.997-6.996z"/></g></svg>
